X: 13734
T: Forest Rogers'
R: polka
M: 2/4
K: Dmajor
D2FA|d2Ad|c2B2|BA cB|A2ce|a2^ga|b2a2|
a^g a2|D2FA|d2Ad|c2B2|BA cB|A2ce|a2c2|d4|d4:|
|:A2f2|fe dc|B2g2|gf ed|cA ce|
a2^ga|b2a2|a^g a2|A2f2|fe dc|
B2g2|gf ed|cA ce|a2c2|d4|d4:|

